dist/img/tel.svg

<svg width="10" height="18" viewBox="0 0 10 18" fill="none" xmlns="http://www.w3.org/2000/svg">
<path class="img__tel" d="M8.8373 0H1.1627C0.523313 0 0 0.522821 0 1.1627V16.0511C0 16.6909 0.523313 17.2142 1.1627 17.2142H8.8373C9.47669 17.2142 10 16.6919 10 16.0515V1.1627C10 0.522821 9.47669 0 8.8373 0ZM3.77238 0.838088H6.22762C6.30533 0.838088 6.36829 0.901043 6.36829 0.979245C6.36829 1.05695 6.30533 1.11991 6.22762 1.11991H3.77238C3.69467 1.11991 3.63171 1.05695 3.63171 0.979245C3.63171 0.901043 3.69467 0.838088 3.77238 0.838088ZM5 16.6329C4.67883 16.6329 4.41865 16.3727 4.41865 16.0511C4.41865 15.7294 4.67883 15.4697 5 15.4697C5.32117 15.4697 5.58135 15.7294 5.58135 16.0511C5.58135 16.3727 5.32117 16.6329 5 16.6329ZM9.19093 15.0625H0.809069V1.84389H9.19093V15.0625Z" fill="#005FA3"/>
</svg>

<svg width="10" height="18" viewBox="0 0 10 18" fill="none" xmlns="http://www.w3.org/2000/svg"><path class="img__tel" d="M8.837 0H1.163C.523 0 0 .523 0 1.163V16.05c0 .64.523 1.163 1.163 1.163h7.674c.64 0 1.163-.522 1.163-1.162V1.162C10 .523 9.477 0 8.837 0zM3.772.838h2.456a.14.14 0 0 1 0 .282H3.772a.14.14 0 1 1 0-.282zM5 16.633a.581.581 0 1 1 0-1.163.581.581 0 0 1 0 1.163zm4.19-1.57H.81V1.842h8.38v13.22z" fill="#005FA3"/></svg>
